lib/flags/m/CPV.svg

<svg xmlns="http://www.w3.org/2000/svg" fill="none" viewBox="0 0 20 15"><mask id="CPV_svg__a" width="20" height="15" x="0" y="0" mask-type="alpha" maskUnits="userSpaceOnUse"><path fill="#fff" d="M0 0H20V15H0z"/></mask><g mask="url(#CPV_svg__a)"><path fill="#4141DB" fill-rule="evenodd" d="M0 0V15H20V0H0Z" clip-rule="evenodd"/><mask id="CPV_svg__b" width="20" height="15" x="0" y="0" mask-type="alpha" maskUnits="userSpaceOnUse"><path fill="#fff" fill-rule="evenodd" d="M0 0V15H20V0H0Z" clip-rule="evenodd"/></mask><g mask="url(#CPV_svg__b)"><path fill="#F90000" stroke="#F7FCFF" stroke-width="1.25" d="M0 8.125H-0.625V8.75V10V10.625H0H20H20.625V10V8.75V8.125H20H0Z"/><g filter="url(#CPV_svg__c)"><path fill="#FFDE00" fill-rule="evenodd" d="M5.11867 6.32063L5.64972 5.95072L6.24606 6.38004L6.23732 6.41213L6.26442 6.39325L6.29064 6.41213L6.28293 6.38036L6.89972 5.95072L7.49606 6.38004L7.48732 6.41213L7.51442 6.39325L7.54064 6.41213L7.53293 6.38036L8.14972 5.95072L8.66355 6.32063H8.37262L8.96095 6.841L8.73732 7.66213L9.39972 7.20072L9.91355 7.57063H9.62262L10.211 8.091L10.0122 8.82063H9.62262L10.211 9.341L10.0122 10.0706H9.62262L10.211 10.591L10.0122 11.3206H9.70101L9.3988 10.6505L9.14107 11.3206H8.37262L8.96095 11.841L8.76224 12.5706H8.45101L8.1488 11.9005L7.89107 12.5706H7.85608H7.20101L6.8988 11.9005L6.64107 12.5706H6.60608H5.95101L5.6488 11.9005L5.39107 12.5706H5.01844L4.84137 11.841L5.35608 11.3206H4.70101L4.3988 10.6505L4.14107 11.3206H3.76844L3.59137 10.591L4.10608 10.0706H3.76844L3.59137 9.341L4.10608 8.82063H3.76844L3.59137 8.091L4.10608 7.57063H3.86867L4.39972 7.20072L5.04064 7.66213L4.84137 6.841L5.35608 6.32063H5.11867ZM5.01224 6.32063L5.21095 5.591L4.62262 5.07063H5.39107L5.6488 4.40051L5.95101 5.07063H6.60608H6.64107L6.8988 4.40051L7.20101 5.07063H7.85608H7.89107L8.1488 4.40051L8.45101 5.07063H9.10608L8.59137 5.591L8.76844 6.32063H9.14107L9.3988 5.65051L9.70101 6.32063H10.3561L9.84137 6.841L10.0184 7.57063H10.3911L10.6488 6.90051L10.951 7.57063H11.6061L11.0914 8.091L11.2684 8.82063H11.6061L11.0914 9.341L11.2684 10.0706H11.6061L11.0914 10.591L11.2906 11.4121L10.6497 10.9507L10.1187 11.3206H10.3561L9.84137 11.841L10.0406 12.6621L9.39972 12.2007L8.86868 12.5706H9.10608L8.59137 13.091L8.79064 13.9121L8.14972 13.4507L7.53293 13.8804L7.54064 13.9121L7.51442 13.8933L7.48732 13.9121L7.49606 13.88L6.89972 13.4507L6.28293 13.8804L6.29064 13.9121L6.26442 13.8933L6.23732 13.9121L6.24606 13.88L5.64972 13.4507L4.98732 13.9121L5.21095 13.091L4.62262 12.5706H4.91355L4.39972 12.2007L3.73732 12.6621L3.96095 11.841L3.37262 11.3206H3.66355L3.14972 10.9507L2.48732 11.4121L2.71095 10.591L2.12262 10.0706H2.51224L2.71095 9.341L2.12262 8.82063H2.51224L2.71095 8.091L2.12262 7.57063H2.89107L3.1488 6.90051L3.45101 7.57063H3.76224L3.96095 6.841L3.37262 6.32063H4.14107L4.3988 5.65051L4.70101 6.32063H5.01224ZM3.34882 8.59406L3.66355 8.82063H3.45101L3.34882 8.59406ZM2.61868 8.82063L2.99075 8.56146L2.89107 8.82063H2.61868ZM2.61868 10.0706H2.89107L2.99075 9.81146L2.61868 10.0706ZM3.34882 9.84406L3.45101 10.0706H3.66355L3.34882 9.84406ZM6.09137 13.091L6.26383 12.9167L6.46095 13.091L6.26552 13.8086L6.09137 13.091ZM7.51552 13.8086L7.71095 13.091L7.51383 12.9167L7.34137 13.091L7.51552 13.8086ZM10.3911 10.0706H10.1187L10.4907 9.81146L10.3911 10.0706ZM10.951 10.0706L10.8488 9.84406L11.1635 10.0706H10.951ZM11.1635 8.82063L10.8488 8.59406L10.951 8.82063H11.1635ZM10.4907 8.56146L10.1187 8.82063H10.3911L10.4907 8.56146ZM7.71095 5.591L7.51552 6.30861L7.34137 5.591L7.51383 5.41665L7.71095 5.591ZM6.26383 5.41665L6.09137 5.591L6.26552 6.30861L6.46095 5.591L6.26383 5.41665Z" clip-rule="evenodd"/></g></g></g><defs><filter id="CPV_svg__c" width="15.483" height="15.512" x="-.877" y="1.401" color-interpolation-filters="sRGB" filterUnits="userSpaceOnUse"><feFlood flood-opacity="0" result="BackgroundImageFix"/><feColorMatrix in="SourceAlpha" values="0 0 0 0 0 0 0 0 0 0 0 0 0 0 0 0 0 0 127 0"/><feOffset/><feGaussianBlur stdDeviation="1.5"/><feColorMatrix values="0 0 0 0 0 0 0 0 0 0 0 0 0 0 0 0 0 0 0.24 0"/><feBlend in2="BackgroundImageFix" result="effect1_dropShadow"/><feBlend in="SourceGraphic" in2="effect1_dropShadow" result="shape"/></filter></defs></svg>

<svg xmlns="http://www.w3.org/2000/svg" fill="none" viewBox="0 0 20 15"><mask id="CPV_svg__a" width="20" height="15" x="0" y="0" maskUnits="userSpaceOnUse"><path fill="#fff" d="M0 0h20v15H0z"/></mask><g mask="url(#CPV_svg__a)"><path fill="#4141DB" fill-rule="evenodd" d="M0 0v15h20V0H0z" clip-rule="evenodd"/><mask id="CPV_svg__b" width="20" height="15" x="0" y="0" maskUnits="userSpaceOnUse"><path fill="#fff" fill-rule="evenodd" d="M0 0v15h20V0H0z" clip-rule="evenodd"/></mask><g mask="url(#CPV_svg__b)"><path fill="#F90000" stroke="#F7FCFF" stroke-width="1.25" d="M0 8.125h-.625v2.5h21.25v-2.5H0z"/><g filter="url(#CPV_svg__c)"><path fill="#FFDE00" fill-rule="evenodd" d="M5.119 6.32l.53-.37.597.43-.009.032.027-.019.027.02-.008-.033.617-.43.596.43-.009.032.027-.019.027.02-.008-.033.617-.43.514.37h-.291l.588.521-.224.821.663-.461.514.37h-.291l.588.52-.199.73h-.39l.589.52-.199.73h-.39l.589.52-.199.73h-.311l-.302-.67-.258.67h-.768l.588.52-.199.73h-.311l-.302-.67-.258.67h-.69l-.302-.67-.258.67h-.69l-.302-.67-.258.67h-.373l-.177-.73.515-.52h-.655l-.302-.67-.258.67h-.373l-.177-.73.515-.52h-.338l-.177-.73.515-.52h-.338l-.177-.73.515-.52H3.87l.53-.37.642.461-.2-.821.515-.52H5.12zm-.107 0l.199-.729-.588-.52h.768l.258-.67.302.67h.69L6.9 4.4l.302.67h.689l.258-.67.302.67h.655l-.515.52.177.73h.373l.258-.67.302.67h.655l-.515.52.177.73h.373l.258-.67.302.67h.655l-.515.52.177.73h.338l-.515.52.177.73h.338l-.515.52.2.821-.641-.461-.531.37h.237l-.515.52.2.821L9.4 12.2l-.531.37h.237l-.515.52.2.821-.641-.461-.617.43.008.031-.027-.019-.027.02.01-.033-.597-.43-.617.43.008.032-.027-.019-.027.02.01-.033-.597-.43-.663.462.224-.821-.588-.52h.29L4.4 12.2l-.663.461.224-.821-.588-.52h.29l-.513-.37-.663.461.224-.821-.588-.52h.39l.198-.73-.588-.52h.39l.198-.73-.588-.52h.768l.258-.67.302.67h.311l.199-.73-.588-.52h.768l.258-.67.302.67h.311zM3.35 8.595l.315.227H3.45l-.102-.227zm-.73.227l.372-.26-.1.26H2.62zm0 1.25h.272l.1-.26-.372.26zm.73-.227l.102.227h.213l-.315-.227zm2.742 3.247l.173-.174.197.174-.195.718-.175-.718zm1.425.718l.195-.718-.197-.174-.173.174.175.718zm2.875-3.738h-.272l.372-.26-.1.26zm.56 0l-.102-.227.315.227h-.213zm.213-1.25l-.315-.227.102.227h.213zm-.673-.26l-.372.26h.272l.1-.26zm-2.78-2.97l-.195.718-.175-.718.173-.174.197.174zm-1.447-.174l-.173.174.175.718.195-.718-.197-.174z" clip-rule="evenodd"/></g></g></g><defs><filter id="CPV_svg__c" width="15.483" height="15.512" x="-.877" y="1.401" color-interpolation-filters="sRGB" filterUnits="userSpaceOnUse"><feFlood flood-opacity="0" result="BackgroundImageFix"/><feColorMatrix in="SourceAlpha" values="0 0 0 0 0 0 0 0 0 0 0 0 0 0 0 0 0 0 127 0"/><feOffset/><feGaussianBlur stdDeviation="1.5"/><feColorMatrix values="0 0 0 0 0 0 0 0 0 0 0 0 0 0 0 0 0 0 0.24 0"/><feBlend in2="BackgroundImageFix" result="effect1_dropShadow"/><feBlend in="SourceGraphic" in2="effect1_dropShadow" result="shape"/></filter></defs></svg>
